!!!OTL: Kiewerlenk, komm, S. 12
!!!id: L0007
**kern
*clefG2
*k[b-]
*a:
{8a
=1
8a
8a
8cc
8cc
=2yy
8cc
8a
8cc
8r
=3
8cc
8cc
8cc}
8r
=4
{8a
8cc
8cc
8cc
=5yy
8a
8a
8cc
8cc
=6yy
8cc
8a
=7
8a
8cc
8cc
8cc#
=8yy
8a
8cc
4cc}
=9
{8cc
8cc
8dd
8dd
=10
8cc
8b-
8a
8dd
=11
8cc
8b-
8a
8dd
=12
8cc
8b-
8a}
8r
==
*-
!!!minrhy: 8
!!!meters: 2/4 ]  ZZ[3
!!!cut: Kiewerlenk, komm, S. 12
!!!reg: Luxemburg
!!!trd: Die Luxemburger Volkslieder &auml;lterer Zeit, Luxemburg 1904 posth.
!!!rhy1:   (XXX)X0  XXX0
!!!rhy2: (XXX)(XXX)  (XXX)X_
!!!key: L0007  08  A 2/4 ]  ZZ[3
!!!mod: VIERTONSKALA ]  AMBITUS[4
!!!kad: 3b3b1
!!!akz: 3b3b_3b3b_3b3b3b3b_
!!!fot: 'a__av_b__
!!!for: 'a__b__c__
!!!fok: '-__-__\__
!! PHRAS[VOLLTAKTIG]
!!!fkt: Kinderlied, Abz&auml;hllied, Kinderliedterno
!! FONTAINE, Ed.:
!! PR[63] 2K[0] 2G[13] 3K[0] 3G[0] 4A[0] 4Ü[0] 5A[0] 6K[0] 6G[0]
!! 7K[0] 7G[0] 8A[0] MEHR[0] SI[13] ABS[16] SR[13] SP[0]
!! ST[4] 2k[6] 2g[19] 3k[0] 3g[0] 4d[0] 4ü[0] 5d[0] 6k[0] 6g[0]
!! 7k[0] 7g[0] 8d[0] mehr[0] si[25] dm[-12] sr[25] sp[0]
!! 1F[47] 2F[35] 3F[18] 4F[0] LF[0] 2P[0] 3P[0] 4P[0] TRI[0] DF[3] AB[17]
!! TF[0] U3K[0] U3[0] U4[0] U4Ü[0] U5[0] U6K[0] U6[0] U7K[0] U7[0]
!! N1[6] N2K[6] N2[0] N3K[71] N3[0] N4[18] N4Ü[0] N5[0] N6K[0] N6[0]
!!!n7k: 0] N7[0] O1[0] O2K[0] O2[0] O3K[0] O3[0] HÖ[0
!!!RNB: symbol: &auml;      = a umlaut  (UTF-8: Å„)
